X:1
T:Summertime
C:Hayward & Gershwin
Q:1/4=60
M:C
K:C
L:1/4
V:1
z2 z/ (A/F/A/- | "Em"A4- | A G/F/ G/A/F/D/- | "Em"D3/2 A,/- A,2- | "E7"A,2) z/ (A/F/G/- |
"Am"G G/G/- G2) | "Am"z (F/D/ F/D/F/E/- | "F#m7"E4- | "B7"E2) z/ A/F/A/- | 
"Em"A4- | A) G/F/ G/A/F/D/- | "Em" A,/- A,2- | "Am7"A,2) "D7"z A, |
"G"(C A,/C/ D/ F3/2 | "F#m7"_A/G/- G- "B7"G F/D/- | "Em"D4- | "F#m7"D2- "B7"D) z |] 
